img/svg/logos/4.svg

<svg width="109" height="14" viewBox="0 0 109 14" fill="none" xmlns="http://www.w3.org/2000/svg">
<path d="M70.9321 13.1421H67.9649V1.03938H77.5488C77.5488 1.03938 79.2995 0.980343 80.427 2.07254C80.427 2.07254 81.5545 3.01714 81.5545 5.34913V13.1421H78.5873V5.14249C78.5873 5.14249 78.617 4.31597 78.35 4.0503C78.35 4.0503 78.1126 3.72559 77.6378 3.72559H70.9321V13.1421ZM83.6315 13.1421V1.80687V1.03938H95.5892V3.72559H86.5987V5.79191H92.8594V8.38956H86.5987V10.4559H95.6485V13.1421H83.6315ZM62.7723 13.1421V1.80687V1.03938H65.7395V13.1421H62.7723ZM99.8619 13.1421V3.72559H97.0728V1.03938H108.229V3.72559H102.859V13.1421H99.8619ZM52.951 13.1421V3.72559H50.1619V1.03938H61.3184V3.72559H55.9479V13.1421H52.951ZM43.9902 5.79191C44.7023 5.79191 45.1474 5.79191 45.3254 5.67383C45.3254 5.67383 45.6221 5.49672 45.6221 5.14249V4.34548C45.6221 3.99126 45.3254 3.81415 45.3254 3.81415C45.088 3.69607 44.7023 3.72559 43.7825 3.72559H37.9965V5.79191H44.1385H43.9902ZM45.5924 13.1421V9.00946C45.5924 8.62571 45.2661 8.47812 45.2661 8.47812C45.1177 8.38956 44.7023 8.38956 44.0792 8.38956H44.2275H37.9668V13.1421H34.9997V1.80687V1.03938H44.2572C45.8595 1.03938 46.9573 1.27553 47.7288 2.0135C48.4706 2.78099 48.5893 3.75511 48.5893 4.78827V5.64431C48.5893 6.52988 48.1442 7.32688 47.5804 7.79918L47.6991 7.85822C47.9365 7.9763 48.0552 8.12389 48.0552 8.12389C48.4706 8.65523 48.4706 9.12753 48.4706 9.68838V13.1421H45.5924ZM0.699219 1.03938V1.80687V13.1421H3.66639V8.38956H12.6569V5.79191H3.66639V3.72559H14.1108V1.03938H0.699219Z" fill="#525252"/>
<path d="M107.189 11.0167V11.5776H107.724C107.872 11.5776 107.991 11.548 108.02 11.3414C108.05 11.0757 107.842 11.0462 107.724 11.0462H107.189V11.0167ZM106.982 10.8396H107.694C107.931 10.8396 108.198 10.8986 108.198 11.2529C108.198 11.4595 108.139 11.5481 107.991 11.6661C108.169 11.7842 108.169 11.7842 108.198 12.0794C108.228 12.286 108.198 12.3155 108.287 12.4631H108.05L108.02 12.2565C107.991 12.0794 108.08 11.7547 107.753 11.7547H107.219V12.4336H107.011L106.982 10.8396ZM107.516 10.3968C106.804 10.3968 106.21 10.9872 106.21 11.6956C106.21 12.4041 106.804 12.9945 107.516 12.9945C108.228 12.9945 108.821 12.4041 108.821 11.6956C108.821 10.9577 108.258 10.3968 107.516 10.3968ZM107.516 13.1421C106.715 13.1421 106.032 12.4927 106.032 11.6661C106.032 10.8691 106.685 10.1902 107.516 10.1902C108.317 10.1902 108.999 10.8396 108.999 11.6661C108.999 12.4927 108.347 13.1421 107.516 13.1421Z" fill="#525252"/>
<path d="M30.9349 13.26C31.9141 12.9353 32.6559 11.8431 32.8339 10.4262V10.0424H27.8787V13.26H30.9349ZM32.8339 4.13869V3.78447C32.6559 2.33804 31.8251 1.18681 30.8162 0.921143H27.9084V4.13869H32.8339ZM15.4463 10.0424V10.4262C15.6243 11.8136 16.3661 12.9353 17.3453 13.26H20.3718V10.0424H15.4463ZM17.464 0.921143C16.4255 1.18681 15.6243 2.33804 15.4463 3.78447V4.13869H20.3718V0.921143H17.464ZM32.8339 5.46704H27.8787V8.68458H32.8339V5.46704ZM21.707 13.26H26.5435V10.0424H21.707V13.26ZM26.5435 0.921143H21.707V4.13869H26.5435V0.921143ZM15.4463 8.7141H20.3718V5.49656H15.4463V8.7141Z" fill="#898989"/>
</svg>

<svg width="109" height="14" viewBox="0 0 109 14" fill="none" xmlns="http://www.w3.org/2000/svg"><path d="M70.932 13.142h-2.967V1.04h9.584s1.75-.059 2.878 1.034c0 0 1.127.944 1.127 3.276v7.793h-2.967v-8s.03-.826-.237-1.092c0 0-.237-.324-.712-.324h-6.706v9.416zm12.7 0V1.04h11.957v2.687H86.6v2.066h6.26V8.39H86.6v2.066h9.05v2.686H83.632zm-20.86 0V1.04h2.968v12.103h-2.968zm37.09 0V3.726h-2.79V1.039h11.157v2.687h-5.37v9.416h-2.997zm-46.911 0V3.726h-2.79V1.039h11.157v2.687h-5.37v9.416H52.95zm-8.96-7.35c.711 0 1.156 0 1.334-.118 0 0 .297-.177.297-.532v-.797c0-.354-.297-.53-.297-.53-.237-.119-.623-.09-1.543-.09h-5.785v2.067h6.142-.149zm1.601 7.35V9.01a.596.596 0 00-.326-.53c-.148-.09-.564-.09-1.187-.09h.148-6.26v4.753H35V1.04h9.257c1.602 0 2.7.237 3.472.975.742.767.86 1.741.86 2.774v.856c0 .886-.445 1.683-1.009 2.155l.12.06c.236.117.355.265.355.265.416.531.416 1.004.416 1.564v3.454h-2.879zM.7 1.04v12.102h2.967V8.39h8.99V5.792h-8.99V3.726h10.445V1.039H.699zm106.489 9.977v.56h.535c.148 0 .267-.029.296-.236.03-.265-.178-.295-.296-.295h-.535v-.03zm-.207-.177h.712c.237 0 .504.059.504.413 0 .207-.059.295-.207.413.178.118.178.118.207.413.03.207 0 .236.089.384h-.237l-.03-.206c-.029-.178.06-.502-.267-.502h-.534v.679h-.208l-.029-1.594zm.534-.443c-.712 0-1.306.59-1.306 1.299 0 .708.594 1.299 1.306 1.299.712 0 1.305-.59 1.305-1.3 0-.737-.563-1.298-1.305-1.298zm0 2.745c-.801 0-1.484-.65-1.484-1.476a1.484 1.484 0 012.967 0c0 .827-.652 1.476-1.483 1.476z" fill="#525252"/><path d="M30.935 13.26c.98-.325 1.72-1.417 1.899-2.834v-.384h-4.955v3.218h3.056zm1.899-9.121v-.355c-.178-1.446-1.009-2.597-2.018-2.863h-2.908V4.14h4.926zm-17.388 5.903v.384c.178 1.388.92 2.51 1.9 2.834h3.026v-3.218h-4.926zm2.018-9.12c-1.038.265-1.84 1.416-2.018 2.862v.355h4.926V.92h-2.908zm15.37 4.545h-4.955v3.218h4.955V5.467zM21.707 13.26h4.837v-3.218h-4.837v3.218zM26.544.921h-4.837V4.14h4.837V.92zM15.446 8.714h4.926V5.497h-4.926v3.217z" fill="#898989"/></svg>
